X:284
%%etbk:tnset id:86,pos:3,rep:3x,ant:
%%etbk:wsite http://www.thesession.org/tunes/display/88
%%etbk:skill ?
%%etbk:pldat 2013-10-03T19:32,2013-05-21T17:44,2013-05-05T14:34
T: Rolling Waves, The
Z: Piano Box Version by Martin Fleischmann
H: Created 2013-02-19 /  Last Modified 2013-02-19
M: 6/8
L: 1/8
R: jig
K: Dmaj
|: "D"!3!FEF !1!D !3!(3D!2!D!1!D | D2!5!d !4!c!2!A!1!G | !3!FEF !1!D !3!(3D!2!D!1!D | !5!AAF !4!GFE |
!3!FEF !1!D !3!(3D!2!D!1!D | D2!5!d !4!c!2!A!1!G | !2!FAF !3!GB!3!G | "A"!5!AAF !4!GFE:|
|: "D"!1!D2!5!d !4!c!2!Ad | !4!c!2!A!5!d !4!c!2!A!1!G | !1!F2!5!d !4!c!2!A!1!G | !5!AAF !4!GFE |
!1!D2!3!d !2!c!1!A!3!d | !5!fed !2!c!1!A!3!G | !2!FAF "A"!3!GB!3!G | !5!AAF !4!GFE:|
